src/resources/svg/tokens/bond.svg

<svg fill="none" viewBox="0 0 40 40" xmlns="http://www.w3.org/2000/svg">
    <rect width="40" height="40" rx="20" fill="#FF4339"/>
    <path d="m19.414 19.171h-0.1136c-1.4389 0-2.6128 1.2118-2.6128 2.6886v2.9158l2.6886-2.007 2.6886 2.007v-2.9158c-0.0379-1.4768-1.2118-2.6886-2.6508-2.6886z" fill="#fff"/>
    <path d="m8.0527 9.3252v21.925l6.7783-5.0742v-5.7937l-1.2497-0.9845 5.7938-4.3547 5.7558 4.3547-1.2497 0.9845v5.7937l6.8162 5.0742v-21.925h-22.645z" fill="#fff"/>
</svg>

<svg width="40" height="40" viewBox="0 0 40 40" xmlns="http://www.w3.org/2000/svg">
    <rect width="40" height="40" rx="20" fill="#FF4339"/>
    <path fill="white"
          d="M19.4139 19.1709H19.3003C17.8614 19.1709 16.6875 20.3827 16.6875 21.8595V24.7753L19.3761 22.7683L22.0647 24.7753V21.8595C22.0268 20.3827 20.8529 19.1709 19.4139 19.1709Z"/>
    <path fill="white"
          d="M8.05273 9.3252V31.2503L14.831 26.1761V20.3824L13.5813 19.3979L19.3751 15.0432L25.1309 19.3979L23.8812 20.3824V26.1761L30.6974 31.2503V9.3252H8.05273Z"/>
</svg>
